X: 17562
T: Hjerdafeld
R: reel
M: 4/4
K: Gmajor
ge|d>B B<B AGAB|G2 BG AG E2|DEGA BGAB|cABG A2 ge|
d>B B<B AGAB|G2 BG AG E2|DEGA BGAB|AcBA G2:|
B2|efge (3fga gf|gage dBAG|DEGA BGAB|cABG A2 B2|
efge (3fga gf|gage dBAG|DEGA BGAB|AcBA G2 A2|
efge (3fga gf|gage dBAG|DEGA BGAB|cABG A2 ge|
d>B B<B AGAB|G2 BG AG E2|DEGA BGAB|AcBA G2 G2||

